X:1
T:Dio, vi salvi Regina
C:Traditionnel Corse, abc file by Bernard Loffet
L:1/8
Q:400
M:3/4
K:C
[A2A,2]A,2[^G2E,2]|[A2A,2]A,2[B2A,2]|[c2F,2][B2F,2][A2F,2]|[A2D,2]D,B[c2D,2]|[B2E,2]E,2E,2|E,2E,2E,2|E,2E,2E,2|E,2E,2E,2|[A2A,2]A,2[^G2E,2]|[A2A,2]A,2[B2A,2]| \
[c2F,2][B2F,2][A2F,2]|[A2D,2]D,B[c2D,2]|[B2E,2]E,2E,2|E,2E,2E,2|E,2E,2E,2|E,2E,2[B2E,2]|[c2C,2]C,2[e2C,2]|[e2C,2][d2C,2][c2C,2]|[d2G,2]G,2[c2G,2]|[d2G,2]G,2G,2| \
G,2G,2[e2G,2]|[c2A,2]A,2[d2A,2]|[B2E,2]E,2E,2|E,2E,2E,2|[A2A,2]A,2A,2|A,2A,2A,2|A,2A,2A,2|A,2A,2[B2E,2]|[c2C,2]C,2[e2C,2]|[e2C,2][d2C,2][c2C,2]|[d2G,2]G,2[c2G,2]| \
[d2G,2]G,2G,2|G,2G,2[e2G,2]|[c2A,2]A,2[d2A,2]|[B2E,2]E,2E,2|E,2E,2E,2|[A2A,2]A,2A,2|A,2A,2A,2|A,2A,2A,2|A,2A,2A,2| \
Z:Created with TablEdit http://www.tabledit.com/ by Bernard Loffet
